X:311
T:Old Joe Clark
M:2/4
L:1/8
K:A
P:A
"A"ef gf|ed cA|ef gf|"E"e3 e|"A"ef gf|ed cA|Ac "G"BB|"A"A4:|
P:B
"A"A2 A2|ed c2|AA cA|"E"B4|"A"A2 A2|ed c2|Ac "G"BB|"A"A4:|

